X: 25
T:Lord John Scott
B:William Marshall Volume 2nd Of A Collection Of Scottish Melodies (1845)
C:William Marshall
L:1/8
M:4/4
O:Scotland
R:Reel
Z:Clark Bernst
%%Page:28 - 2
F:http://richardrobinson.tunebook.org.uk/tune/3868
%%TBL:{"version":1,"type":"tune","id":"3868"}
K:A
A2 ce dcBA | fgae dcBA | dfBd ceAc | dBcA AGFE |
A2 ce dcBA | fgae dcBA | fdec dBcA | AGFE A2 A2 ||
^dede fgaf | gbag agfe | ^dBfB gBfB | bgaf e^dcB |
^dede fgaf | gbag agfe | bgaf gef^d | Be^df e2 e2 |]

